X:779
T:Xiraldilla (CT 120) (Arrg.)
R:Xiraldilla
C:Tradicional
S:Msica Tradicional Asturiana, (C) Tello & Tito. Asturies, 2001.
S:http://pagina.de/MusTradAst <telloytito@asturies.org>
N:Xiraldillas, transcrita en Uviu.
A:Asturies
G:Arrg.
O:Uviu
Z:Cancioneru de Torner 120
M:2/4
L:1/8
Q:1/4=168
K:Gm
|"Gm"BB Bc|"Gm"de dc|"Gm"B2 "Dm"A2|"Gm"G4|
"Gm"BB Bc|"Gm"de dc|"Gm"B2 "Dm"A2|"Gm"G2 z2|
"Gm"d2 d2|"Gm"d3 e|"Gm"g2 "Eb"e2|"Gm"d2 d2|
"Gm"d2 "Eb"e2|"Cm"c3 d|"Gm"B2 "Dm"A2|"Gm"G2 z2|
"Gm"d2 d2|"Gm"d3 e|"Gm"g2 "Eb"e2|"Gm"d2 d2|
"Gm"d2 "Eb"e2|"Cm"c3 d|"Gm"B2 "Dm"A2|"Gm"G2 z2|
|:"Gm"BB Bc|"Gm"de dc|"Gm"B2 "Dm"A2|"Gm"G4|
"Gm"BB Bc|"Gm"de dc|"Gm"B2 "Dm"A2|"Gm"G2 z2 :||
W:breme la puerta,
W:dorado clavel,
W:breme la puerta
W:que te vengo a ver.
W:
W:Si vienes solito, solo,
W:una luz encender;
W:slo por ver a mi amante
W:todo el mundo rodear.
W:
W:Por ver a mi amante,
W:por ver a mi amor,
W:por ver la prenda
W:de mi corazn.
W:
W:Por ver a mi amante,
W:por ver a mi amor,
W:por ver la prenda
W:que ms quiero yo.
W:
